src/assets/progress_icon.svg

<svg width="28" height="29" viewBox="0 0 28 29" fill="none" xmlns="http://www.w3.org/2000/svg">
<path d="M19.6268 3.70825H8.46736C5.84801 3.70825 3.72461 5.92817 3.72461 8.66659V20.3333C3.72461 23.0717 5.84801 25.2916 8.46736 25.2916H19.6268C22.2461 25.2916 24.3695 23.0717 24.3695 20.3333V8.66659C24.3695 5.92817 22.2461 3.70825 19.6268 3.70825Z" stroke="white" stroke-width="2"/>
<path fill-rule="evenodd" clip-rule="evenodd" d="M19.3043 10.9541C19.3043 10.4709 18.9295 10.0791 18.4673 10.0791H15.3109C14.8486 10.0791 14.4739 10.4709 14.4739 10.9541C14.4739 11.4374 14.8486 11.8291 15.3109 11.8291H16.4467L13.7509 14.6475L12.1545 12.9786C11.8277 12.6368 11.2978 12.6368 10.9709 12.9786L7.42001 16.6909C7.09315 17.0326 7.09315 17.5867 7.42001 17.9284C7.74686 18.2701 8.27679 18.2701 8.60365 17.9284L11.5627 14.8347L13.159 16.5036C13.4859 16.8454 14.0158 16.8454 14.3427 16.5036L17.6304 13.0665V14.254C17.6304 14.7372 18.0051 15.129 18.4673 15.129C18.9295 15.129 19.3043 14.7372 19.3043 14.254V10.9541Z" fill="white"/>
</svg>

<svg width="28" height="29" fill="none" xmlns="http://www.w3.org/2000/svg"><path d="M19.627 3.708H8.467c-2.619 0-4.742 2.22-4.742 4.959v11.666c0 2.739 2.123 4.959 4.742 4.959h11.16c2.62 0 4.742-2.22 4.742-4.959V8.667c0-2.739-2.123-4.959-4.742-4.959Z" stroke="#fff" stroke-width="2"/><path fill-rule="evenodd" clip-rule="evenodd" d="M19.304 10.954c0-.483-.374-.875-.837-.875h-3.156c-.462 0-.837.392-.837.875s.375.875.837.875h1.136l-2.696 2.819-1.596-1.67a.811.811 0 0 0-1.184 0L7.42 16.692a.903.903 0 0 0 0 1.237.811.811 0 0 0 1.184 0l2.959-3.093 1.596 1.669a.811.811 0 0 0 1.184 0l3.287-3.438v1.188c0 .483.375.875.837.875.463 0 .837-.392.837-.875v-3.3Z" fill="#fff"/></svg>
